assets/card-2.svg

<svg width="242" height="166" viewBox="0 0 242 166" fill="none" xmlns="http://www.w3.org/2000/svg">
<path d="M178.67 100.124C178.678 108.521 176.866 116.826 173.349 124.508C169.833 132.19 164.69 139.079 158.251 144.734C156.459 146.308 154.576 147.783 152.61 149.15C150.087 150.905 147.431 152.474 144.665 153.846H144.636C144.046 154.144 143.447 154.428 142.843 154.703C142.567 154.833 142.297 154.955 142.016 155.076C140.267 155.849 138.472 156.543 136.632 157.158C135.182 157.624 133.694 158.09 132.191 158.472C123.52 160.695 114.457 161.106 105.609 159.678C104.56 159.511 103.526 159.32 102.496 159.101L101.626 158.91C99.0002 158.318 96.4171 157.562 93.8934 156.646C92.4273 156.115 90.9903 155.532 89.5823 154.899C89.0361 154.652 88.49 154.4 87.9535 154.139C87.5862 153.962 87.2237 153.781 86.8612 153.599C77.0273 148.621 68.7426 141.213 62.8556 132.135C56.9685 123.056 53.6906 112.632 53.3575 101.93C53.0244 91.2289 55.6481 80.6343 60.9599 71.2316C66.2717 61.8289 74.0807 53.9558 83.5873 48.4186C93.0939 42.8814 103.957 39.8791 115.063 39.719C126.169 39.559 137.12 42.2469 146.794 47.5077C156.468 52.7684 164.518 60.4129 170.119 69.6583C175.72 78.9038 178.671 89.418 178.67 100.124Z" fill="url(#paint0_linear)"/>
<path d="M132.423 104.494C136.415 108.454 148.043 123.864 148.043 123.864L140.9 133.959L134.477 113.904L132.423 104.494Z" fill="url(#paint1_linear)"/>
<path d="M144.636 153.878C144.046 154.177 143.447 154.461 142.843 154.736C142.567 154.866 142.297 154.987 142.016 155.108C140.267 155.882 138.472 156.576 136.632 157.191C135.182 157.656 133.694 158.122 132.191 158.504C123.52 160.727 114.457 161.139 105.609 159.711C104.56 159.543 103.526 159.352 102.496 159.133C98.7265 161.639 95.2466 163.759 92.9413 164.723L93.1298 163.172L93.9127 156.683L95.7251 141.585L102.907 134.89L86.7598 136.097C86.7598 136.097 88.4562 113.41 95.0775 108.742C101.699 104.075 108.644 99.8912 108.644 99.8912C109.473 100.418 110.385 100.81 111.346 101.051C113.642 101.663 116.029 101.898 118.407 101.745C121.239 101.62 124.071 99.0806 124.206 98.9502C124.206 98.9502 128.653 99.8027 132.423 104.512C134.303 106.937 135.653 109.704 136.391 112.646C137.319 116.089 138.967 124.129 140.842 133.842C142.07 140.094 143.36 147.026 144.636 153.878Z" fill="url(#paint2_linear)"/>
<path d="M148.043 123.882L154.935 131.667L179.173 108.477L180.091 103.73L184.925 99.6816L182.774 105.854V113.895C182.774 113.895 164.079 143.103 158.927 144.608C152.901 146.374 140.91 133.949 140.91 133.949L148.043 123.882Z" fill="url(#paint3_linear)"/>
<path d="M122.882 134.527L128.503 147.571L135.767 144.561L130.441 131.797L122.882 134.527Z" fill="#7E57C2"/>
<path d="M130.712 142.954C129.808 143.672 128.46 143.504 126.787 143.588C124.541 143.645 122.386 144.459 120.698 145.889C118.45 147.711 112.167 152.476 105.884 156.827C104.744 157.614 103.603 158.392 102.501 159.156C98.7314 161.663 95.2516 163.782 92.9462 164.747C92.3401 165.037 91.6856 165.221 91.013 165.292C87.7845 165.371 87.0933 158.849 86.8952 153.645C86.8324 151.917 86.8179 150.338 86.784 149.197C86.6487 144.631 86.784 136.153 86.784 136.153L102.931 134.942L101.22 145.721L100.921 147.627V147.641L105.754 145.917L105.904 145.866L123.061 139.721L124.245 137.751L124.999 139.614H125.072L132.418 138.682C132.418 138.682 132.544 141.505 130.712 142.954Z" fill="url(#paint4_linear)"/>
<path d="M127.005 74.9684C126.584 73.8597 126.222 73.105 126.116 72.8814V72.8255C126.116 72.8255 125.743 73.7107 122.94 73.4964C120.137 73.2821 119.209 71.9404 119.209 71.9404C119.209 71.9404 120.089 74.8473 116.749 76.0911C113.535 77.293 112.269 76.5151 112.182 76.4592C112.351 76.6362 114.864 79.2263 113.197 81.2807C111.471 83.4096 107.59 82.9903 107.59 82.9903V83.0183C108.079 84.0844 108.626 85.1247 109.229 86.1348C109.548 86.6659 109.862 87.155 110.195 87.6116V87.6442C111.051 88.9863 112.207 90.1274 113.579 90.9843C112.976 94.3934 111.245 97.5229 108.644 99.9053C109.519 100.345 110.421 100.733 111.346 101.065C113.148 101.722 115.57 102.374 117.73 102.193C120.233 101.935 122.546 100.785 124.216 98.9689L123.109 94.8741L122.114 91.1846C131.113 88.9718 128.638 79.3474 127.005 74.9684ZM121.611 91.3197L121.771 91.2824L122.027 91.2126C121.654 91.368 121.26 91.4715 120.857 91.52C121.065 91.4688 121.278 91.4129 121.5 91.3476L121.611 91.3197Z" fill="url(#paint5_linear)"/>
<path d="M132.423 72.7044C128.711 75.9933 127.106 75.0662 127.005 74.9777V74.9684C126.584 73.8597 126.222 73.105 126.12 72.8814L126.096 72.8255C126.096 72.8255 125.719 73.7106 122.916 73.4963C120.113 73.282 119.19 71.9404 119.19 71.9404C119.19 71.9404 120.069 74.8473 116.73 76.0911C113.511 77.293 112.244 76.515 112.162 76.4591C112.331 76.6315 114.845 79.2216 113.177 81.276C111.452 83.4049 107.571 82.9903 107.571 82.9903V83.0136C108.059 84.0813 108.606 85.1232 109.209 86.1348C109.531 86.6627 109.854 87.155 110.176 87.6115V87.6441C110.176 87.6441 108.852 90.1551 106.488 90.1038C104.125 90.0526 104.072 87.7746 104.072 87.7746C104.072 87.7746 102.399 90.6815 97.2329 87.8817C92.0664 85.082 95.5123 81.0244 95.5123 81.0244C95.5123 81.0244 91.8489 78.3225 91.8489 74.2743C91.8489 70.2261 97.5519 67.1468 97.5519 67.1468C97.5519 67.1468 95.5123 62.4464 98.9535 59.8563C102.395 57.2662 107.566 59.0224 107.566 59.0224C107.566 59.0224 107.465 53.0083 112.733 53.1062C118.001 53.204 119.194 56.3112 119.194 56.3112C119.194 56.3112 123.931 52.7801 128.619 56.1062C133.307 59.4324 131.379 65.2322 131.379 65.2322C131.379 65.2322 136.294 69.2804 132.423 72.7044Z" fill="url(#paint6_linear)"/>
<path opacity="0.15" d="M123.148 94.8601C120.901 94.1753 116.904 91.5619 116.904 91.5619C118.481 91.7225 120.075 91.6408 121.626 91.3196L121.785 91.2824L122.095 91.1938H122.138L123.148 94.8601Z" fill="black"/>
<path opacity="0.15" d="M105.087 120.957L102.907 134.932L101.196 145.712L97.2136 148.903L105.879 145.87C105.879 145.87 103.632 139.684 105.087 120.957Z" fill="black"/>
<path opacity="0.15" d="M102.487 159.133C103.516 159.352 104.55 159.543 105.599 159.711C105.652 158.756 105.749 157.791 105.884 156.827L102.487 159.133Z" fill="black"/>
<g filter="url(#filter0_d)">
<path d="M81.5402 10.1343H55.6977C52.1316 10.1343 49.2407 12.9207 49.2407 16.358V41.2669C49.2407 44.7042 52.1316 47.4906 55.6977 47.4906H81.5402C85.1063 47.4906 87.9972 44.7042 87.9972 41.2669V16.358C87.9972 12.9207 85.1063 10.1343 81.5402 10.1343Z" fill="#56CCF2"/>
</g>
<path d="M78.316 27.5068H74.3874L77.4398 24.5443L76.1115 23.2459L71.7212 27.5068H69.837V25.6781L74.2272 21.4173L72.8895 20.128L69.837 23.0905V19.2777H67.9528V23.0905L64.9004 20.128L63.5626 21.4173L67.9528 25.6781V27.5068H66.0686L61.6784 23.2459L60.35 24.5443L63.4025 27.5068H59.4739V29.3354H63.4025L60.35 32.2979L61.6784 33.5963L66.0686 29.3354H67.9528V31.1641L63.5626 35.4249L64.9004 36.7142L67.9528 33.7517V37.5645H69.837V33.7517L72.8895 36.7142L74.2272 35.4249L69.837 31.1641V29.3354H71.7212L76.1115 33.5963L77.4398 32.2979L74.3874 29.3354H78.316V27.5068Z" fill="white"/>
<g filter="url(#filter1_d)">
<path d="M215.189 98.3112H189.346C185.78 98.3112 182.889 101.098 182.889 104.535V129.444C182.889 132.881 185.78 135.668 189.346 135.668H215.189C218.755 135.668 221.646 132.881 221.646 129.444V104.535C221.646 101.098 218.755 98.3112 215.189 98.3112Z" fill="#F2C94C"/>
</g>
<path d="M211.152 113.855C211.152 109.283 207.384 105.626 202.674 105.626C197.963 105.626 194.195 109.283 194.195 113.855C194.195 116.689 195.702 119.25 197.963 120.712V122.998C197.963 124.187 198.717 125.193 199.847 125.558V125.741C199.847 127.296 201.072 128.484 202.674 128.484C204.275 128.484 205.5 127.296 205.5 125.741V125.558C206.63 125.193 207.384 124.187 207.384 122.998V120.712C209.645 119.25 211.152 116.689 211.152 113.855ZM196.079 113.855C196.079 110.289 198.999 107.455 202.674 107.455C206.348 107.455 209.268 110.289 209.268 113.855C209.268 117.055 206.819 119.707 203.616 120.164V117.878L205.217 116.324C205.594 115.958 205.594 115.409 205.217 115.044C204.84 114.678 204.275 114.678 203.898 115.044L202.674 116.232L201.449 115.044C201.072 114.678 200.507 114.678 200.13 115.044C199.753 115.409 199.753 115.958 200.13 116.324L201.731 117.878V120.164C198.528 119.707 196.079 117.055 196.079 113.855ZM202.674 126.656C202.108 126.656 201.731 126.29 201.731 125.741H203.616C203.616 126.29 203.239 126.656 202.674 126.656ZM205.5 122.998C205.5 123.547 205.123 123.913 204.558 123.913H200.789C200.224 123.913 199.847 123.547 199.847 122.998V121.627C200.695 121.901 201.637 122.084 202.674 122.084C203.71 122.084 204.652 121.901 205.5 121.627V122.998Z" fill="white"/>
<g filter="url(#filter2_d)">
<path d="M42.7836 98.3112H16.9411C13.375 98.3112 10.4841 101.098 10.4841 104.535V129.444C10.4841 132.881 13.375 135.668 16.9411 135.668H42.7836C46.3497 135.668 49.2406 132.881 49.2406 129.444V104.535C49.2406 101.098 46.3497 98.3112 42.7836 98.3112Z" fill="#F58A8A"/>
</g>
<path d="M35.9209 113.855H34.9788V112.026C34.9788 109.503 32.8685 107.454 30.2683 107.454C27.6681 107.454 25.5578 109.503 25.5578 112.026V113.855H24.6157C23.5793 113.855 22.7314 114.678 22.7314 115.684V124.827C22.7314 125.833 23.5793 126.656 24.6157 126.656H35.9209C36.9572 126.656 37.8051 125.833 37.8051 124.827V115.684C37.8051 114.678 36.9572 113.855 35.9209 113.855ZM30.2683 122.084C29.232 122.084 28.3841 121.261 28.3841 120.255C28.3841 119.249 29.232 118.427 30.2683 118.427C31.3046 118.427 32.1525 119.249 32.1525 120.255C32.1525 121.261 31.3046 122.084 30.2683 122.084ZM33.1888 113.855H27.3478V112.026C27.3478 110.463 28.6573 109.192 30.2683 109.192C31.8793 109.192 33.1888 110.463 33.1888 112.026V113.855Z" fill="white"/>
<g filter="url(#filter3_d)">
<path d="M172.794 10.1343H146.952C143.386 10.1343 140.495 12.9207 140.495 16.358V41.2669C140.495 44.7042 143.386 47.4906 146.952 47.4906H172.794C176.36 47.4906 179.251 44.7042 179.251 41.2669V16.358C179.251 12.9207 176.36 10.1343 172.794 10.1343Z" fill="#6FCF97"/>
</g>
<path d="M165.282 23.7548H149.896V33.0873H165.282V23.7548Z" fill="white"/>
<path d="M169.429 25.6118L166.033 26.9971V29.8842L169.429 31.2695H170.661V25.6118H169.429Z" fill="white"/>
<defs>
<filter id="filter0_d" x="39.2407" y="0.134277" width="68.7565" height="67.3564" filterUnits="userSpaceOnUse" color-interpolation-filters="sRGB">
<feFlood flood-opacity="0" result="BackgroundImageFix"/>
<feColorMatrix in="SourceAlpha" type="matrix" values="0 0 0 0 0 0 0 0 0 0 0 0 0 0 0 0 0 0 127 0"/>
<feOffset dx="5" dy="5"/>
<feGaussianBlur stdDeviation="7.5"/>
<feColorMatrix type="matrix" values="0 0 0 0 0 0 0 0 0 0 0 0 0 0 0 0 0 0 0.15 0"/>
<feBlend mode="normal" in2="BackgroundImageFix" result="effect1_dropShadow"/>
<feBlend mode="normal" in="SourceGraphic" in2="effect1_dropShadow" result="shape"/>
</filter>
<filter id="filter1_d" x="172.889" y="88.3112" width="68.7565" height="67.3564" filterUnits="userSpaceOnUse" color-interpolation-filters="sRGB">
<feFlood flood-opacity="0" result="BackgroundImageFix"/>
<feColorMatrix in="SourceAlpha" type="matrix" values="0 0 0 0 0 0 0 0 0 0 0 0 0 0 0 0 0 0 127 0"/>
<feOffset dx="5" dy="5"/>
<feGaussianBlur stdDeviation="7.5"/>
<feColorMatrix type="matrix" values="0 0 0 0 0 0 0 0 0 0 0 0 0 0 0 0 0 0 0.15 0"/>
<feBlend mode="normal" in2="BackgroundImageFix" result="effect1_dropShadow"/>
<feBlend mode="normal" in="SourceGraphic" in2="effect1_dropShadow" result="shape"/>
</filter>
<filter id="filter2_d" x="0.484131" y="88.3112" width="68.7565" height="67.3563" filterUnits="userSpaceOnUse" color-interpolation-filters="sRGB">
<feFlood flood-opacity="0" result="BackgroundImageFix"/>
<feColorMatrix in="SourceAlpha" type="matrix" values="0 0 0 0 0 0 0 0 0 0 0 0 0 0 0 0 0 0 127 0"/>
<feOffset dx="5" dy="5"/>
<feGaussianBlur stdDeviation="7.5"/>
<feColorMatrix type="matrix" values="0 0 0 0 0 0 0 0 0 0 0 0 0 0 0 0 0 0 0.15 0"/>
<feBlend mode="normal" in2="BackgroundImageFix" result="effect1_dropShadow"/>
<feBlend mode="normal" in="SourceGraphic" in2="effect1_dropShadow" result="shape"/>
</filter>
<filter id="filter3_d" x="130.495" y="0.134277" width="68.7564" height="67.3564" filterUnits="userSpaceOnUse" color-interpolation-filters="sRGB">
<feFlood flood-opacity="0" result="BackgroundImageFix"/>
<feColorMatrix in="SourceAlpha" type="matrix" values="0 0 0 0 0 0 0 0 0 0 0 0 0 0 0 0 0 0 127 0"/>
<feOffset dx="5" dy="5"/>
<feGaussianBlur stdDeviation="7.5"/>
<feColorMatrix type="matrix" values="0 0 0 0 0 0 0 0 0 0 0 0 0 0 0 0 0 0 0.15 0"/>
<feBlend mode="normal" in2="BackgroundImageFix" result="effect1_dropShadow"/>
<feBlend mode="normal" in="SourceGraphic" in2="effect1_dropShadow" result="shape"/>
</filter>
<linearGradient id="paint0_linear" x1="116.257" y1="46.2717" x2="114.266" y2="165.33" gradientUnits="userSpaceOnUse">
<stop stop-color="white" stop-opacity="0"/>
<stop offset="1" stop-color="#64B5F6" stop-opacity="0.6"/>
</linearGradient>
<linearGradient id="paint1_linear" x1="127.691" y1="100.492" x2="144.027" y2="130.274" gradientUnits="userSpaceOnUse">
<stop stop-color="#E57373"/>
<stop offset="1" stop-color="#AD1457"/>
</linearGradient>
<linearGradient id="paint2_linear" x1="26513" y1="36361.6" x2="24812.5" y2="45068.9" gradientUnits="userSpaceOnUse">
<stop stop-color="#E57373"/>
<stop offset="1" stop-color="#AD1457"/>
</linearGradient>
<linearGradient id="paint3_linear" x1="191.483" y1="111.258" x2="145.537" y2="138.873" gradientUnits="userSpaceOnUse">
<stop stop-color="#FFF8E1"/>
<stop offset="1" stop-color="#FFCC80"/>
</linearGradient>
<linearGradient id="paint4_linear" x1="20399.9" y1="20383.7" x2="17931.8" y2="18657.1" gradientUnits="userSpaceOnUse">
<stop stop-color="#FFF8E1"/>
<stop offset="1" stop-color="#FFCC80"/>
</linearGradient>
<linearGradient id="paint5_linear" x1="131.736" y1="79.7124" x2="106.489" y2="90.4997" gradientUnits="userSpaceOnUse">
<stop stop-color="#FFF8E1"/>
<stop offset="1" stop-color="#FFCC80"/>
</linearGradient>
<linearGradient id="paint6_linear" x1="125.879" y1="52.9291" x2="97.4053" y2="92.8436" gradientUnits="userSpaceOnUse">
<stop stop-color="#FFB74D"/>
<stop offset="1" stop-color="#F4511E"/>
</linearGradient>
</defs>
</svg>

<svg width="242" height="166" fill="none" xmlns="http://www.w3.org/2000/svg">
  <path d="M178.67 100.124a58.407 58.407 0 01-5.321 24.384c-3.516 7.682-8.659 14.571-15.098 20.226a63.352 63.352 0 01-5.641 4.416 62.71 62.71 0 01-7.945 4.696h-.029c-.59.298-1.189.582-1.793.857a61.677 61.677 0 01-6.211 2.455c-1.45.466-2.938.932-4.441 1.314a65.255 65.255 0 01-26.582 1.206 61.214 61.214 0 01-3.113-.577l-.87-.191a63.778 63.778 0 01-12.044-4.011 64.146 64.146 0 01-2.72-1.3c-9.835-4.978-18.12-12.386-24.006-21.464-5.888-9.079-9.165-19.503-9.498-30.205-.334-10.701 2.29-21.296 7.602-30.698 5.312-9.403 13.12-17.276 22.627-22.813 9.507-5.538 20.37-8.54 31.476-8.7 11.106-.16 22.057 2.528 31.731 7.789 9.674 5.26 17.724 12.905 23.325 22.15 5.601 9.246 8.552 19.76 8.551 30.466z" fill="url(#paint0_linear)" />
  <path d="M132.423 104.494c3.992 3.96 15.62 19.37 15.62 19.37l-7.143 10.095-6.423-20.055-2.054-9.41z" fill="url(#paint1_linear)" />
  <path d="M144.636 153.878c-.59.299-1.189.583-1.793.858-.276.13-.546.251-.827.372a61.366 61.366 0 01-5.384 2.083c-1.45.465-2.938.931-4.441 1.313a65.255 65.255 0 01-29.695.629c-3.77 2.506-7.25 4.626-9.555 5.59l.189-1.551.783-6.489 1.812-15.098 7.182-6.695-16.147 1.207s1.696-22.687 8.317-27.355c6.622-4.667 13.567-8.85 13.567-8.85a9.217 9.217 0 002.702 1.159c2.296.612 4.683.847 7.061.694 2.832-.125 5.664-2.664 5.799-2.795 0 0 4.447.853 8.217 5.562a22.023 22.023 0 013.968 8.134c.928 3.443 2.576 11.483 4.451 21.196 1.228 6.252 2.518 13.184 3.794 20.036z" fill="url(#paint2_linear)" />
  <path d="M148.043 123.882l6.892 7.785 24.238-23.19.918-4.747 4.834-4.048-2.151 6.172v8.041s-18.695 29.208-23.847 30.713c-6.026 1.766-18.017-10.659-18.017-10.659l7.133-10.067z" fill="url(#paint3_linear)" />
  <path d="M122.882 134.527l5.621 13.044 7.264-3.01-5.326-12.764-7.559 2.73z" fill="#7E57C2" />
  <path d="M130.712 142.954c-.904.718-2.252.55-3.925.634a9.81 9.81 0 00-6.089 2.301c-2.248 1.822-8.531 6.587-14.814 10.938-1.14.787-2.281 1.565-3.383 2.329-3.77 2.507-7.25 4.626-9.555 5.591a5.92 5.92 0 01-1.933.545c-3.229.079-3.92-6.443-4.118-11.647-.063-1.728-.077-3.307-.111-4.448-.135-4.566 0-13.044 0-13.044l16.147-1.211-1.711 10.779-.299 1.906v.014l4.833-1.724.15-.051 17.157-6.145 1.184-1.97.754 1.863h.073l7.346-.932s.126 2.823-1.706 4.272z" fill="url(#paint4_linear)" />
  <path d="M127.005 74.968c-.421-1.108-.783-1.863-.889-2.087v-.055s-.373.885-3.176.67c-2.803-.214-3.731-1.556-3.731-1.556s.88 2.907-2.46 4.151c-3.214 1.202-4.48.424-4.567.368.169.177 2.682 2.767 1.015 4.822-1.726 2.129-5.607 1.71-5.607 1.71v.027a32.576 32.576 0 001.639 3.117c.319.53.633 1.02.966 1.477v.032a10.78 10.78 0 003.384 3.34c-.603 3.41-2.334 6.539-4.935 8.921.875.44 1.777.828 2.702 1.16 1.802.657 4.224 1.309 6.384 1.128 2.503-.258 4.816-1.408 6.486-3.224l-1.107-4.095-.995-3.69c8.999-2.212 6.524-11.837 4.891-16.216zm-5.394 16.352l.16-.038.256-.07a4.415 4.415 0 01-1.17.308c.208-.051.421-.107.643-.172l.111-.028z" fill="url(#paint5_linear)" />
  <path d="M132.423 72.704c-3.712 3.29-5.317 2.362-5.418 2.274v-.01c-.421-1.108-.783-1.863-.885-2.087l-.024-.055s-.377.885-3.18.67c-2.803-.214-3.726-1.556-3.726-1.556s.879 2.907-2.46 4.151c-3.219 1.202-4.486.424-4.568.368.169.172 2.683 2.763 1.015 4.817-1.725 2.129-5.606 1.714-5.606 1.714v.024a32.406 32.406 0 001.638 3.12c.322.529.645 1.021.967 1.478v.032s-1.324 2.511-3.688 2.46c-2.363-.051-2.416-2.33-2.416-2.33s-1.673 2.907-6.84.108c-5.166-2.8-1.72-6.858-1.72-6.858s-3.663-2.701-3.663-6.75c0-4.048 5.703-7.127 5.703-7.127s-2.04-4.7 1.401-7.29c3.442-2.59 8.613-.835 8.613-.835s-.101-6.014 5.167-5.916c5.268.098 6.461 3.205 6.461 3.205s4.737-3.53 9.425-.205c4.688 3.326 2.76 9.126 2.76 9.126s4.915 4.048 1.044 7.472z" fill="url(#paint6_linear)" />
  <path opacity=".15" d="M123.148 94.86c-2.247-.685-6.244-3.298-6.244-3.298 1.577.16 3.171.079 4.722-.242l.159-.038.31-.088h.043l1.01 3.666zM105.087 120.957l-2.18 13.975-1.711 10.78-3.982 3.191 8.665-3.033s-2.247-6.186-.792-24.913zM102.487 159.133a62.09 62.09 0 003.112.578c.053-.955.15-1.92.285-2.884l-3.397 2.306z" fill="#000" />
  <g filter="url(#filter0_d)">
    <path d="M81.54 10.134H55.698c-3.566 0-6.457 2.787-6.457 6.224v24.909c0 3.437 2.89 6.224 6.457 6.224H81.54c3.566 0 6.457-2.787 6.457-6.224V16.358c0-3.437-2.89-6.224-6.457-6.224z" fill="#56CCF2" />
  </g>
  <path d="M78.316 27.507h-3.929l3.053-2.963-1.328-1.298-4.39 4.26h-1.885v-1.828l4.39-4.26-1.338-1.29-3.052 2.962v-3.812h-1.884v3.813L64.9 20.127l-1.337 1.29 4.39 4.26v1.829h-1.884l-4.39-4.261-1.329 1.298 3.053 2.963h-3.93v1.828h3.93l-3.053 2.963 1.328 1.298 4.39-4.26h1.885v1.828l-4.39 4.26 1.337 1.29 3.053-2.962v3.813h1.884v-3.813l3.052 2.962 1.338-1.29-4.39-4.26v-1.829h1.884l4.39 4.261 1.329-1.298-3.053-2.963h3.929v-1.828z" fill="#fff" />
  <g filter="url(#filter1_d)">
    <path d="M215.189 98.311h-25.843c-3.566 0-6.457 2.787-6.457 6.224v24.909c0 3.437 2.891 6.224 6.457 6.224h25.843c3.566 0 6.457-2.787 6.457-6.224v-24.909c0-3.437-2.891-6.224-6.457-6.224z" fill="#F2C94C" />
  </g>
  <path d="M211.152 113.855c0-4.572-3.768-8.229-8.478-8.229-4.711 0-8.479 3.657-8.479 8.229 0 2.834 1.507 5.395 3.768 6.857v2.286c0 1.189.754 2.195 1.884 2.56v.183c0 1.555 1.225 2.743 2.827 2.743 1.601 0 2.826-1.188 2.826-2.743v-.183c1.13-.365 1.884-1.371 1.884-2.56v-2.286c2.261-1.462 3.768-4.023 3.768-6.857zm-15.073 0c0-3.566 2.92-6.4 6.595-6.4 3.674 0 6.594 2.834 6.594 6.4 0 3.2-2.449 5.852-5.652 6.309v-2.286l1.601-1.554a.866.866 0 000-1.28.93.93 0 00-1.319 0l-1.224 1.188-1.225-1.188a.93.93 0 00-1.319 0 .866.866 0 000 1.28l1.601 1.554v2.286c-3.203-.457-5.652-3.109-5.652-6.309zm6.595 12.801c-.566 0-.943-.366-.943-.915h1.885c0 .549-.377.915-.942.915zm2.826-3.658c0 .549-.377.915-.942.915h-3.769c-.565 0-.942-.366-.942-.915v-1.371c.848.274 1.79.457 2.827.457a9.135 9.135 0 002.826-.457v1.371z" fill="#fff" />
  <g filter="url(#filter2_d)">
    <path d="M42.784 98.311H16.94c-3.566 0-6.457 2.787-6.457 6.224v24.909c0 3.437 2.891 6.224 6.457 6.224h25.843c3.566 0 6.457-2.787 6.457-6.224v-24.909c0-3.437-2.891-6.224-6.457-6.224z" fill="#F58A8A" />
  </g>
  <path d="M35.92 113.855h-.941v-1.829c0-2.523-2.11-4.572-4.71-4.572s-4.711 2.049-4.711 4.572v1.829h-.942c-1.037 0-1.885.823-1.885 1.829v9.143c0 1.006.848 1.829 1.885 1.829H35.92c1.036 0 1.884-.823 1.884-1.829v-9.143c0-1.006-.848-1.829-1.884-1.829zm-5.652 8.229c-1.036 0-1.884-.823-1.884-1.829s.848-1.828 1.884-1.828c1.037 0 1.885.822 1.885 1.828 0 1.006-.848 1.829-1.885 1.829zm2.92-8.229h-5.84v-1.829c0-1.563 1.31-2.834 2.92-2.834 1.611 0 2.92 1.271 2.92 2.834v1.829z" fill="#fff" />
  <g filter="url(#filter3_d)">
    <path d="M172.794 10.134h-25.842c-3.566 0-6.457 2.787-6.457 6.224v24.909c0 3.437 2.891 6.224 6.457 6.224h25.842c3.566 0 6.457-2.787 6.457-6.224V16.358c0-3.437-2.891-6.224-6.457-6.224z" fill="#6FCF97" />
  </g>
  <path d="M165.282 23.755h-15.386v9.332h15.386v-9.332zM169.429 25.612l-3.396 1.385v2.887l3.396 1.386h1.232v-5.658h-1.232z" fill="#fff" />
  <defs>
    <linearGradient id="paint0_linear" x1="116.257" y1="46.272" x2="114.266" y2="165.33" gradientUnits="userSpaceOnUse">
      <stop stop-color="#fff" stop-opacity="0" />
      <stop offset="1" stop-color="#64B5F6" stop-opacity=".6" />
    </linearGradient>
    <linearGradient id="paint1_linear" x1="127.691" y1="100.492" x2="144.027" y2="130.274" gradientUnits="userSpaceOnUse">
      <stop stop-color="#E57373" />
      <stop offset="1" stop-color="#AD1457" />
    </linearGradient>
    <linearGradient id="paint2_linear" x1="26513" y1="36361.6" x2="24812.5" y2="45068.9" gradientUnits="userSpaceOnUse">
      <stop stop-color="#E57373" />
      <stop offset="1" stop-color="#AD1457" />
    </linearGradient>
    <linearGradient id="paint3_linear" x1="191.483" y1="111.258" x2="145.537" y2="138.873" gradientUnits="userSpaceOnUse">
      <stop stop-color="#FFF8E1" />
      <stop offset="1" stop-color="#FFCC80" />
    </linearGradient>
    <linearGradient id="paint4_linear" x1="20399.9" y1="20383.7" x2="17931.8" y2="18657.1" gradientUnits="userSpaceOnUse">
      <stop stop-color="#FFF8E1" />
      <stop offset="1" stop-color="#FFCC80" />
    </linearGradient>
    <linearGradient id="paint5_linear" x1="131.736" y1="79.712" x2="106.489" y2="90.5" gradientUnits="userSpaceOnUse">
      <stop stop-color="#FFF8E1" />
      <stop offset="1" stop-color="#FFCC80" />
    </linearGradient>
    <linearGradient id="paint6_linear" x1="125.879" y1="52.929" x2="97.405" y2="92.844" gradientUnits="userSpaceOnUse">
      <stop stop-color="#FFB74D" />
      <stop offset="1" stop-color="#F4511E" />
    </linearGradient>
    <filter id="filter0_d" x="39.241" y=".134" width="68.757" height="67.356" filterUnits="userSpaceOnUse" color-interpolation-filters="sRGB">
      <feFlood flood-opacity="0" result="BackgroundImageFix" />
      <feColorMatrix in="SourceAlpha" values="0 0 0 0 0 0 0 0 0 0 0 0 0 0 0 0 0 0 127 0" />
      <feOffset dx="5" dy="5" />
      <feGaussianBlur stdDeviation="7.5" />
      <feColorMatrix values="0 0 0 0 0 0 0 0 0 0 0 0 0 0 0 0 0 0 0.15 0" />
      <feBlend in2="BackgroundImageFix" result="effect1_dropShadow" />
      <feBlend in="SourceGraphic" in2="effect1_dropShadow" result="shape" />
    </filter>
    <filter id="filter1_d" x="172.889" y="88.311" width="68.757" height="67.356" filterUnits="userSpaceOnUse" color-interpolation-filters="sRGB">
      <feFlood flood-opacity="0" result="BackgroundImageFix" />
      <feColorMatrix in="SourceAlpha" values="0 0 0 0 0 0 0 0 0 0 0 0 0 0 0 0 0 0 127 0" />
      <feOffset dx="5" dy="5" />
      <feGaussianBlur stdDeviation="7.5" />
      <feColorMatrix values="0 0 0 0 0 0 0 0 0 0 0 0 0 0 0 0 0 0 0.15 0" />
      <feBlend in2="BackgroundImageFix" result="effect1_dropShadow" />
      <feBlend in="SourceGraphic" in2="effect1_dropShadow" result="shape" />
    </filter>
    <filter id="filter2_d" x=".484" y="88.311" width="68.757" height="67.356" filterUnits="userSpaceOnUse" color-interpolation-filters="sRGB">
      <feFlood flood-opacity="0" result="BackgroundImageFix" />
      <feColorMatrix in="SourceAlpha" values="0 0 0 0 0 0 0 0 0 0 0 0 0 0 0 0 0 0 127 0" />
      <feOffset dx="5" dy="5" />
      <feGaussianBlur stdDeviation="7.5" />
      <feColorMatrix values="0 0 0 0 0 0 0 0 0 0 0 0 0 0 0 0 0 0 0.15 0" />
      <feBlend in2="BackgroundImageFix" result="effect1_dropShadow" />
      <feBlend in="SourceGraphic" in2="effect1_dropShadow" result="shape" />
    </filter>
    <filter id="filter3_d" x="130.495" y=".134" width="68.756" height="67.356" filterUnits="userSpaceOnUse" color-interpolation-filters="sRGB">
      <feFlood flood-opacity="0" result="BackgroundImageFix" />
      <feColorMatrix in="SourceAlpha" values="0 0 0 0 0 0 0 0 0 0 0 0 0 0 0 0 0 0 127 0" />
      <feOffset dx="5" dy="5" />
      <feGaussianBlur stdDeviation="7.5" />
      <feColorMatrix values="0 0 0 0 0 0 0 0 0 0 0 0 0 0 0 0 0 0 0.15 0" />
      <feBlend in2="BackgroundImageFix" result="effect1_dropShadow" />
      <feBlend in="SourceGraphic" in2="effect1_dropShadow" result="shape" />
    </filter>
  </defs>
</svg>
